docs/img/svgicons/topics/masks.svg

<?xml version="1.0" encoding="utf-8"?><!-- Uploaded to: SVG Repo, www.svgrepo.com, Generator: SVG Repo Mixer Tools -->
<svg width="800px" height="800px" viewBox="0 0 24 24" fill="none" xmlns="http://www.w3.org/2000/svg">
<path d="M16.5 17.221C17.5576 16.7652 18.614 16.0672 19.4315 15M7.38745 8.10846L8.08698 5.37926C8.52754 3.66038 8.74783 2.80094 9.32307 2.36888C9.51592 2.22403 9.73208 2.11656 9.96126 2.05159C10.6449 1.85777 11.4219 2.22163 12.9758 2.94934C14.1266 3.48822 14.7019 3.75765 15.3023 3.94822C15.511 4.01448 15.7218 4.07352 15.9342 4.12524C16.5453 4.27402 17.1725 4.34142 18.4267 4.47622C20.1206 4.65827 20.9675 4.74929 21.4668 5.27447C21.6342 5.45054 21.77 5.6566 21.8678 5.88284C22.1593 6.55769 21.939 7.41713 21.4984 9.13602L21.0207 11" stroke="#1C274C" stroke-width="1.5" stroke-linecap="round"/>
<path d="M2.46673 13C2.04961 11.3713 1.84853 10.5397 2.13226 9.88284C2.22999 9.6566 2.36579 9.45054 2.53319 9.27447C3.03253 8.74929 3.87945 8.65827 5.57328 8.47622C6.82756 8.34142 7.4547 8.27402 8.06578 8.12524C8.27824 8.07352 8.48901 8.01448 8.69774 7.94822C9.29811 7.75765 9.87347 7.48822 11.0242 6.94934C12.5782 6.22163 13.3551 5.85777 14.0388 6.05159C14.268 6.11656 14.4841 6.22403 14.677 6.36888C15.2522 6.80094 15.4725 7.66038 15.9131 9.37926L16.7582 12.6766C17.7517 16.5526 15.4742 19.335 13.7324 20.8219C13.201 21.2755 12.9353 21.5023 11.907 21.7903C10.8787 22.0784 10.5401 22.0208 9.86292 21.9058C7.75527 21.5476 4.67076 20.4302 3.51432 17" stroke="#1C274C" stroke-width="1.5" stroke-linecap="round"/>
<path d="M5.25882 13.2955C5.31893 12.6763 5.77997 12.1206 6.44889 11.9414C7.11781 11.7621 7.79491 12.0128 8.1566 12.5191" stroke="#1C274C" stroke-width="1.5" stroke-linecap="round"/>
<path d="M19.1797 8.93565C19.1195 8.3164 18.6585 7.76073 17.9896 7.5815C17.3207 7.40226 16.6436 7.65296 16.2819 8.1592" stroke="#1C274C" stroke-width="1.5" stroke-linecap="round"/>
<path d="M11.0547 11.7423C11.1148 11.123 11.5759 10.5674 12.2448 10.3881C12.9137 10.2089 13.5908 10.4596 13.9525 10.9658" stroke="#1C274C" stroke-width="1.5" stroke-linecap="round"/>
<path d="M11.0963 7.04186C10.8555 7.37889 10.3871 7.4569 10.05 7.21611C9.71299 6.97531 9.63498 6.50689 9.87578 6.16986L11.0963 7.04186ZM11.9996 6.75261C11.6209 6.65113 11.2692 6.79987 11.0963 7.04186L9.87578 6.16986C10.4263 5.39938 11.4287 5.04672 12.3879 5.30372L11.9996 6.75261ZM12.4781 7.06543C12.3675 6.92277 12.2041 6.80739 11.9996 6.75261L12.3879 5.30372C12.9124 5.44427 13.3545 5.74776 13.6635 6.14629L12.4781 7.06543Z" fill="#1C274C"/>
<path d="M13.2007 16.231C13.2007 16.231 12.1758 15.4703 10.3884 15.9492C8.60094 16.4282 8.09372 17.5994 8.09372 17.5994" stroke="#1C274C" stroke-width="1.5" stroke-linecap="round"/>
</svg>

<svg width="800" height="800" viewBox="0 0 24 24" fill="none" xmlns="http://www.w3.org/2000/svg"><path d="M16.5 17.221c1.058-.456 2.114-1.154 2.931-2.221M7.387 8.108l.7-2.729c.44-1.719.66-2.578 1.236-3.01.193-.145.41-.252.638-.317.684-.194 1.46.17 3.015.897 1.15.54 1.726.809 2.326 1 .209.065.42.125.632.176.611.149 1.239.216 2.493.351 1.694.182 2.54.273 3.04.798.167.177.303.383.4.609.292.675.072 1.534-.369 3.253L21.021 11" stroke="#1C274C" stroke-width="1.5" stroke-linecap="round"/><path d="M2.467 13c-.417-1.629-.618-2.46-.335-3.117.098-.226.234-.432.401-.609.5-.525 1.346-.616 3.04-.798 1.255-.135 1.882-.202 2.493-.35a9.57 9.57 0 00.632-.178c.6-.19 1.175-.46 2.326-.999 1.554-.727 2.331-1.091 3.015-.897.229.065.445.172.638.317.575.432.796 1.291 1.236 3.01l.845 3.298c.994 3.876-1.284 6.658-3.026 8.145-.531.454-.797.68-1.825.968-1.028.288-1.367.23-2.044.116C7.755 21.548 4.67 20.43 3.514 17" stroke="#1C274C" stroke-width="1.5" stroke-linecap="round"/><path d="M5.259 13.296c.06-.62.521-1.175 1.19-1.355.669-.179 1.346.072 1.708.578M19.18 8.936c-.06-.62-.521-1.175-1.19-1.354-.67-.18-1.346.071-1.708.577m-5.227 3.583c.06-.619.52-1.175 1.19-1.354.669-.18 1.346.072 1.708.578" stroke="#1C274C" stroke-width="1.5" stroke-linecap="round"/><path d="M11.096 7.042a.75.75 0 01-1.22-.872l1.22.872zm.904-.29c-.38-.1-.73.048-.904.29l-1.22-.872c.55-.77 1.553-1.123 2.512-.866L12 6.753zm.478.313A.894.894 0 0012 6.753l.388-1.45c.524.141.966.445 1.276.843l-1.186.92z" fill="#1C274C"/><path d="M13.2 16.231s-1.024-.76-2.812-.282c-1.787.48-2.294 1.65-2.294 1.65" stroke="#1C274C" stroke-width="1.5" stroke-linecap="round"/></svg>
